X:1
T:Title
%%score { ( 1 3 ) | ( 2 4 ) }
L:1/8
M:4/4
K:Ab
V:1 treble nm="Grand Piano"
V:3 treble 
V:2 bass 
V:4 bass 
V:1
 z4 z2[Q:1/4=100] [CE][CE] | [CA][CA][CA][DA] [EA]2 [DG][CA] | B6 z2 | z4 B2[K:bass][K:treble] z2 | %4
 c6 z2 | [Fd][Fd][Fd][Fd] [Fd]2 [FA][=EB] | [Ec][Ec][Ec][Ec] [Ec]2 [EA][EA] | %7
 [=DB][DA][DG][DF] z d c>B |[M:3/4] [A,CA]6 |[M:1/4] c>d |[M:4/4] e6 [CA]>B | [Ec]6 z2 | %12
 [Fd][Fd][Fd][Fd] [Fd]2 [FA][=EB] | [Ec][Ec][Ec][Ec] [Ec]2 [EA][EA] | [=DB][DA][DG][DF] z d c>B | %15
[M:3/4] [CA]6 |] %16
V:2
 z4 z2 [A,,A,][A,,A,] | [A,,E,][A,,E,][A,,E,][B,,E,] [C,E,]2 [B,,E,][A,,A,] | %2
 [E,G,E]2 [E,G,][E,G,] [E,G,]2 [E,G,][E,G,] | %3
 [E,G,E][E,G,E][E,G,E][E,G,E] .[E,G,E]2 [C,A,][B,,G,] | [A,,A,]2 A,A, A,2 [A,E][A,E] | %5
 [D,A,][D,A,][D,A,][D,A,] [D,A,]2 [D,A,][D,A,] | %6
 [A,,A,][A,,A,][A,,A,][A,,A,] [A,,A,]2 [C,A,][C,A,] | z4 .G,2 z2 |[M:3/4] A,,6 | %9
[M:1/4][K:treble] A>B |[M:4/4] c6[K:bass] z A, | A,A,E,C, A,,2 [A,E][A,E] | %12
 [D,A,][D,A,][D,A,][D,A,] [D,A,]2 [D,A,][D,A,] | %13
 [A,,A,][A,,A,][A,,A,][A,,A,] [A,,A,]2 [C,A,][C,A,] | z4 .G,2 z2 |[M:3/4] [A,,A,]6 |] %16
V:3
 x8 | x8 | z2 EE E2 EE | BBBB z[K:bass] D,[K:treble][EA][EB] | E2 EE E2 cc | x8 | x8 | z4 E2 z2 | %8
[M:3/4] x6 |[M:1/4] x2 |[M:4/4] x8 | z2 A,A, A,2 cc | x8 | x8 | z4 E2 z2 |[M:3/4] x6 |] %16
V:4
 x8 | x8 | x8 | x8 | x8 | x8 | x8 | [B,,A,][B,,F,][B,,B,][B,,A,] E,-[E,B,] [E,A,E]>[E,G,D] | %8
[M:3/4] x6 |[M:1/4][K:treble] x2 |[M:4/4] z2 A,>A,[K:bass] A,A, .A,>D | x8 | x8 | x8 | %14
 [B,,A,][B,,F,][B,,B,][B,,A,] E,-[E,B,] [E,A,E]>[E,G,D] |[M:3/4] x6 |] %16

